X:41
T:Gray's Inn Mask
T:Mad Tom
M:C|
L:1/8
K:DDor
d2 de f2 d2 | a2 A2 A4 | A2 AB ^c2 A2 | d2 D2 D3 E | F3 F G3 G | ABcB A3 A | Bcde f2 ef | d2 d2 d4 :|
defg a2 a2 | g2 f2 e3 f | d2 d2 ^c3 B | A8 :: ^c2 A2 e4 | f2 d2 a3 a | g2 f2 g3 a | f8 ||
%
%
